X:1
T:Title
%%score { ( 1 2 3 ) | ( 4 5 ) }
L:1/8
Q:1/4=110
M:4/4
K:C
V:1 treble nm="Grand Piano"
V:2 treble 
V:3 treble 
V:4 bass 
V:5 bass 
V:1
 z2 z D [G,CE]2 [G,CF]2 | [CG]3 [FA] [CEG]4 | [G,EG]3 [Ec] [DFB]4 | [DFA]3 [B,DB] [CEG]4 | %4
 [Ec]3 [CE] [CF]2 G2 | AGFE [B,D]4 | [CG]4 [CFA]3 [DFB] | [EGc]8 | [Ec]3 [Gd] [Ge]2 d2 | c2 B2 A4 | %10
 A3 [DB] [Ec]2 dc | B2 [D^FA]2 [B,G]4 | [Ec]4[K:bass][K:treble] z4 | A2 B2 c2 d2 | e4 d4 | [Ec]8 |] %16
V:2
 C4 z4 | x8 | x8 | x8 | x8 | x8 | x8 | x8 | x8 | x8 | z4 z2 ^F2 | x8 | %12
 z2[K:bass] z E[K:treble] [CF]2 [EG]2 | x8 | x8 | x8 |] %16
V:3
 z2 G,2 z4 | x8 | x8 | x8 | x8 | x8 | x8 | x8 | x8 | x8 | x8 | x8 | z2[K:bass] _B,,2[K:treble] z4 | %13
 x8 | x8 | x8 |] %16
V:4
 [C,E,]2 z B, C,2 D,2 | E,2 z C C,4 | C,3 [C,G,] G,,4 | G,,3 G,, C,4 | %4
 [C,G,]3 [B,,G,] [A,,A,]2 [C,E,C]2 | CEDC z2 F,2 | E,4 F,3 D, | C,8 | %8
 [C,G,]3 [B,,G,] [C,C]2[K:treble] [G,B,F]2 | [A,CE]2[K:bass] [E,G,E]2 [F,A,C]4 | %10
 [D,^F,D]3 [B,,G,] [A,,G,]2 [D,A,]2 | [D,G,D]2 D,2 G,,4 | G,4 z4 | %13
 [F,C]2 [E,^G,D]2[K:treble] [A,E]2 [F,A,F]2 | [G,CG]4[K:bass] [G,,B,F]4 | [C,G,]8 |] %16
V:5
 z2 G,,2 z4 | z2 F,2 z4 | x8 | x8 | x8 | F,2 [D,A,]2 G,4 | x8 | x8 | x6[K:treble] x2 | %9
 x2[K:bass] x6 | x8 | x8 | C,2 z [G,C] [A,,A,]2 [C,G,]2 | x4[K:treble] x4 | x4[K:bass] x4 | x8 |] %16

